app/wp-content/themes/feliz7play/dist/images/f7p_icon.svg

<svg width="42" height="42" viewBox="0 0 42 42" fill="none" xmlns="http://www.w3.org/2000/svg">
<path d="M20.8051 0C9.34107 0 0 9.34107 0 20.8051C0 32.2691 9.34107 41.6102 20.8051 41.6102C32.2691 41.6102 41.6102 32.2691 41.6102 20.8051C41.6102 9.34107 32.2691 0 20.8051 0ZM33.361 13.8296V13.8903C33.361 13.8903 33.361 13.8903 33.361 13.9509V14.0116C33.361 14.0116 33.361 14.0116 33.361 14.0723V14.1329V14.1936V14.2542V14.3149V14.3755V14.4362C33.361 14.4362 33.361 14.4362 33.361 14.4969V14.5575V14.6182C33.361 14.6182 33.361 14.6788 33.3003 14.6788C33.3003 14.6788 33.3003 14.7395 33.2396 14.7395C33.2396 14.7395 33.2396 14.8001 33.179 14.8001L22.8068 32.7544C22.3822 33.4216 21.6543 33.8462 20.9264 33.8462C20.5625 33.8462 20.1985 33.7249 19.8346 33.5429C18.8034 32.9364 18.4395 31.6019 19.0461 30.5708L27.5379 15.8313H14.1936L16.1346 19.1674C16.7411 20.1985 16.4378 21.533 15.4067 22.1395C15.0428 22.3215 14.6788 22.4428 14.3149 22.4428C13.587 22.4428 12.8591 22.0789 12.4345 21.4117L8.61319 14.9214C8.00663 13.8903 8.30991 12.5559 9.34106 11.9493C9.40172 11.8886 9.46238 11.8886 9.58369 11.828C9.88698 11.7067 10.1903 11.5854 10.4935 11.5854H31.1773C31.3593 11.5854 31.4806 11.5854 31.6626 11.646C31.7232 11.646 31.7232 11.646 31.7839 11.646H31.8445H31.9052C31.9052 11.646 31.9052 11.646 31.9659 11.646H32.0265H32.0872C32.0872 11.646 32.0872 11.646 32.1478 11.646C32.1478 11.646 32.2085 11.646 32.2085 11.7067C32.2085 11.7067 32.2691 11.7067 32.2691 11.7673L32.3298 11.828C32.3298 11.828 32.3904 11.828 32.3904 11.8886C32.3904 11.8886 32.3905 11.8886 32.4511 11.8886C32.4511 11.8886 32.4511 11.8886 32.5118 11.9493C32.5118 11.9493 32.5724 11.9493 32.5724 12.0099L32.6331 12.0706C32.7544 12.1919 32.815 12.2526 32.8757 12.3739L32.9364 12.4345L32.997 12.4952C33.179 12.7378 33.2396 13.0411 33.3003 13.3444V13.405C33.3003 13.405 33.3003 13.405 33.3003 13.4657V13.5264C33.361 13.769 33.361 13.769 33.361 13.8296C33.361 13.769 33.361 13.769 33.361 13.8296Z" fill="#F16723"/>
</svg>

<svg width="42" height="42" viewBox="0 0 42 42" fill="none" xmlns="http://www.w3.org/2000/svg"><path d="M20.805 0C9.341 0 0 9.341 0 20.805S9.341 41.61 20.805 41.61 41.61 32.27 41.61 20.805C41.61 9.341 32.27 0 20.805 0zm12.556 13.83v.788s0 .06-.06.06c0 0 0 .061-.061.061 0 0 0 .061-.061.061L22.807 32.754c-.425.668-1.153 1.092-1.88 1.092-.364 0-.729-.121-1.092-.303-1.032-.607-1.396-1.941-.789-2.972l8.492-14.74H14.194l1.94 3.336c.607 1.031.304 2.366-.727 2.973-.364.181-.728.303-1.092.303a2.234 2.234 0 01-1.88-1.031l-3.822-6.49c-.606-1.032-.303-2.366.728-2.973.06-.06.121-.06.243-.121.303-.121.606-.243.91-.243h20.683c.182 0 .304 0 .486.061h.484s.062 0 .062.06c0 0 .06 0 .06.061l.06.061s.061 0 .061.06h.061l.06.061s.061 0 .061.06l.061.062c.121.12.182.182.243.303l.06.06.061.061c.182.243.243.546.303.85v.181c.061.243.061.243.061.304 0-.061 0-.061 0 0z" fill="#F16723"/></svg>
